images/24360.svg

<?xml version="1.0" encoding="UTF-8"?>
<svg xmlns="http://www.w3.org/2000/svg" xmlns:xlink="http://www.w3.org/1999/xlink" width="300pt" height="300pt" viewBox="0 0 300 300" version="1.1">
<defs>
<g>
<symbol overflow="visible" id="glyph0-0">
<path style="stroke:none;" d="M 0.546875 1.9375 L 0.546875 -7.75 L 6.046875 -7.75 L 6.046875 1.9375 Z M 1.171875 1.328125 L 5.4375 1.328125 L 5.4375 -7.140625 L 1.171875 -7.140625 Z M 1.171875 1.328125 "/>
</symbol>
<symbol overflow="visible" id="glyph0-1">
<path style="stroke:none;" d="M 4.328125 -7.28125 C 3.546875 -7.28125 2.921875 -6.984375 2.453125 -6.390625 C 1.992188 -5.804688 1.765625 -5.007812 1.765625 -4 C 1.765625 -2.988281 1.992188 -2.1875 2.453125 -1.59375 C 2.921875 -1.007812 3.546875 -0.71875 4.328125 -0.71875 C 5.117188 -0.71875 5.742188 -1.007812 6.203125 -1.59375 C 6.660156 -2.1875 6.890625 -2.988281 6.890625 -4 C 6.890625 -5.007812 6.660156 -5.804688 6.203125 -6.390625 C 5.742188 -6.984375 5.117188 -7.28125 4.328125 -7.28125 Z M 4.328125 -8.171875 C 5.453125 -8.171875 6.351562 -7.789062 7.03125 -7.03125 C 7.707031 -6.28125 8.046875 -5.269531 8.046875 -4 C 8.046875 -2.738281 7.707031 -1.726562 7.03125 -0.96875 C 6.351562 -0.21875 5.453125 0.15625 4.328125 0.15625 C 3.203125 0.15625 2.300781 -0.21875 1.625 -0.96875 C 0.957031 -1.71875 0.625 -2.726562 0.625 -4 C 0.625 -5.269531 0.957031 -6.28125 1.625 -7.03125 C 2.300781 -7.789062 3.203125 -8.171875 4.328125 -8.171875 Z M 4.328125 -8.171875 "/>
</symbol>
<symbol overflow="visible" id="glyph0-2">
<path style="stroke:none;" d="M 1.078125 -8.015625 L 2.546875 -8.015625 L 6.09375 -1.3125 L 6.09375 -8.015625 L 7.15625 -8.015625 L 7.15625 0 L 5.6875 0 L 2.125 -6.703125 L 2.125 0 L 1.078125 0 Z M 1.078125 -8.015625 "/>
</symbol>
<symbol overflow="visible" id="glyph0-3">
<path style="stroke:none;" d="M 1.078125 -8.015625 L 2.171875 -8.015625 L 2.171875 -4.734375 L 6.109375 -4.734375 L 6.109375 -8.015625 L 7.1875 -8.015625 L 7.1875 0 L 6.109375 0 L 6.109375 -3.8125 L 2.171875 -3.8125 L 2.171875 0 L 1.078125 0 Z M 1.078125 -8.015625 "/>
</symbol>
</g>
</defs>
<g id="surface41733">
<rect x="0" y="0" width="300" height="300" style="fill:rgb(100%,100%,100%);fill-opacity:1;stroke:none;"/>
<path style="fill:none;stroke-width:1.2;stroke-linecap:butt;stroke-linejoin:miter;stroke:rgb(0%,0%,0%);stroke-opacity:1;stroke-miterlimit:10;" d="M 80.300781 84.292969 L 67.050781 107.042969 "/>
<path style="fill:none;stroke-width:1;stroke-linecap:butt;stroke-linejoin:miter;stroke:rgb(0%,0%,0%);stroke-opacity:1;stroke-miterlimit:10;" d="M 80.125 129.890625 L 80.125 129.890625 M 79.109375 127.066406 L 78.203125 127.585938 M 78.09375 124.246094 L 76.285156 125.28125 M 77.078125 121.421875 L 74.363281 122.976562 M 76.066406 118.597656 L 72.445312 120.667969 M 75.050781 115.773438 L 70.523438 118.363281 M 74.035156 112.953125 L 68.605469 116.058594 M 73.019531 110.128906 L 66.683594 113.753906 M 72.003906 107.304688 L 64.765625 111.449219 M 71.082031 104.734375 L 63.015625 109.347656 "/>
<path style="fill:none;stroke-width:1.2;stroke-linecap:butt;stroke-linejoin:miter;stroke:rgb(0%,0%,0%);stroke-opacity:1;stroke-miterlimit:10;" d="M 80.125 129.890625 L 100.222656 146.890625 "/>
<path style="fill:none;stroke-width:1.2;stroke-linecap:butt;stroke-linejoin:miter;stroke:rgb(0%,0%,0%);stroke-opacity:1;stroke-miterlimit:10;" d="M 80.125 129.890625 L 90.238281 121.46875 "/>
<path style="fill:none;stroke-width:1.2;stroke-linecap:butt;stroke-linejoin:miter;stroke:rgb(100%,0%,0%);stroke-opacity:1;stroke-miterlimit:10;" d="M 90.238281 121.46875 L 100.355469 113.046875 "/>
<path style="fill:none;stroke-width:1.2;stroke-linecap:butt;stroke-linejoin:miter;stroke:rgb(0%,0%,0%);stroke-opacity:1;stroke-miterlimit:10;" d="M 55.351562 138.796875 L 80.125 129.890625 "/>
<path style="fill:none;stroke-width:1.2;stroke-linecap:butt;stroke-linejoin:miter;stroke:rgb(0%,0%,0%);stroke-opacity:1;stroke-miterlimit:10;" d="M 100.222656 146.890625 L 95.550781 172.796875 "/>
<path style="fill:none;stroke-width:1.2;stroke-linecap:butt;stroke-linejoin:miter;stroke:rgb(0%,0%,0%);stroke-opacity:1;stroke-miterlimit:10;" d="M 105.851562 150.582031 L 102.117188 171.308594 "/>
<path style="fill:none;stroke-width:1.2;stroke-linecap:butt;stroke-linejoin:miter;stroke:rgb(0%,0%,0%);stroke-opacity:1;stroke-miterlimit:10;" d="M 124.996094 137.984375 L 100.222656 146.890625 "/>
<path style="fill:none;stroke-width:1.2;stroke-linecap:butt;stroke-linejoin:miter;stroke:rgb(0%,0%,0%);stroke-opacity:1;stroke-miterlimit:10;" d="M 95.550781 172.796875 L 70.78125 181.707031 "/>
<path style="fill:none;stroke-width:1.2;stroke-linecap:butt;stroke-linejoin:miter;stroke:rgb(0%,0%,0%);stroke-opacity:1;stroke-miterlimit:10;" d="M 95.550781 172.796875 L 115.652344 189.796875 "/>
<path style="fill:none;stroke-width:1.2;stroke-linecap:butt;stroke-linejoin:miter;stroke:rgb(0%,0%,0%);stroke-opacity:1;stroke-miterlimit:10;" d="M 70.78125 181.707031 L 60.730469 173.207031 "/>
<path style="fill:none;stroke-width:1.2;stroke-linecap:butt;stroke-linejoin:miter;stroke:rgb(100%,0%,0%);stroke-opacity:1;stroke-miterlimit:10;" d="M 60.730469 173.207031 L 50.679688 164.707031 "/>
<path style="fill:none;stroke-width:1.2;stroke-linecap:butt;stroke-linejoin:miter;stroke:rgb(100%,0%,0%);stroke-opacity:1;stroke-miterlimit:10;" d="M 50.679688 164.707031 L 53.015625 151.753906 "/>
<path style="fill:none;stroke-width:1.2;stroke-linecap:butt;stroke-linejoin:miter;stroke:rgb(0%,0%,0%);stroke-opacity:1;stroke-miterlimit:10;" d="M 53.015625 151.753906 L 55.351562 138.796875 "/>
<path style=" stroke:none;fill-rule:nonzero;fill:rgb(100%,100%,100%);fill-opacity:1;" d="M 46.679688 158.207031 L 55.679688 158.207031 L 55.679688 171.207031 L 46.679688 171.207031 Z M 46.679688 158.207031 "/>
<g style="fill:rgb(100%,0%,0%);fill-opacity:1;">
  <use xlink:href="#glyph0-1" x="46.679688" y="168.108398"/>
</g>
<path style="fill:none;stroke-width:1.2;stroke-linecap:butt;stroke-linejoin:miter;stroke:rgb(0%,0%,0%);stroke-opacity:1;stroke-miterlimit:10;" d="M 57.351562 136.433594 L 47.300781 127.933594 "/>
<path style="fill:none;stroke-width:1.2;stroke-linecap:butt;stroke-linejoin:miter;stroke:rgb(100%,0%,0%);stroke-opacity:1;stroke-miterlimit:10;" d="M 47.300781 127.933594 L 37.25 119.433594 "/>
<path style="fill:none;stroke-width:1.2;stroke-linecap:butt;stroke-linejoin:miter;stroke:rgb(0%,0%,0%);stroke-opacity:1;stroke-miterlimit:10;" d="M 53.351562 141.164062 L 43.300781 132.664062 "/>
<path style="fill:none;stroke-width:1.2;stroke-linecap:butt;stroke-linejoin:miter;stroke:rgb(100%,0%,0%);stroke-opacity:1;stroke-miterlimit:10;" d="M 43.300781 132.664062 L 33.25 124.164062 "/>
<path style=" stroke:none;fill-rule:nonzero;fill:rgb(100%,100%,100%);fill-opacity:1;" d="M 26.25 115.300781 L 35.25 115.300781 L 35.25 128.300781 L 26.25 128.300781 Z M 26.25 115.300781 "/>
<g style="fill:rgb(100%,0%,0%);fill-opacity:1;">
  <use xlink:href="#glyph0-1" x="26.25" y="125.202148"/>
</g>
<path style="fill:none;stroke-width:1.2;stroke-linecap:butt;stroke-linejoin:miter;stroke:rgb(0%,0%,0%);stroke-opacity:1;stroke-miterlimit:10;" d="M 112.605469 189.25 L 110.269531 202.203125 "/>
<path style="fill:none;stroke-width:1.2;stroke-linecap:butt;stroke-linejoin:miter;stroke:rgb(100%,0%,0%);stroke-opacity:1;stroke-miterlimit:10;" d="M 110.269531 202.203125 L 107.933594 215.15625 "/>
<path style="fill:none;stroke-width:1.2;stroke-linecap:butt;stroke-linejoin:miter;stroke:rgb(0%,0%,0%);stroke-opacity:1;stroke-miterlimit:10;" d="M 118.703125 190.347656 L 116.367188 203.300781 "/>
<path style="fill:none;stroke-width:1.2;stroke-linecap:butt;stroke-linejoin:miter;stroke:rgb(100%,0%,0%);stroke-opacity:1;stroke-miterlimit:10;" d="M 116.367188 203.300781 L 114.03125 216.257812 "/>
<path style="fill:none;stroke-width:1.2;stroke-linecap:butt;stroke-linejoin:miter;stroke:rgb(0%,0%,0%);stroke-opacity:1;stroke-miterlimit:10;" d="M 115.652344 189.796875 L 128.039062 185.34375 "/>
<path style="fill:none;stroke-width:1.2;stroke-linecap:butt;stroke-linejoin:miter;stroke:rgb(0%,0%,100%);stroke-opacity:1;stroke-miterlimit:10;" d="M 128.039062 185.34375 L 140.425781 180.890625 "/>
<path style=" stroke:none;fill-rule:nonzero;fill:rgb(100%,100%,100%);fill-opacity:1;" d="M 106.980469 209.207031 L 115.980469 209.207031 L 115.980469 222.207031 L 106.980469 222.207031 Z M 106.980469 209.207031 "/>
<g style="fill:rgb(100%,0%,0%);fill-opacity:1;">
  <use xlink:href="#glyph0-1" x="106.980469" y="219.108398"/>
</g>
<path style="fill:none;stroke-width:1.2;stroke-linecap:butt;stroke-linejoin:miter;stroke:rgb(0%,0%,100%);stroke-opacity:1;stroke-miterlimit:10;" d="M 140.425781 180.890625 L 152.023438 187.113281 "/>
<path style="fill:none;stroke-width:1.2;stroke-linecap:butt;stroke-linejoin:miter;stroke:rgb(0%,0%,0%);stroke-opacity:1;stroke-miterlimit:10;" d="M 152.023438 187.113281 L 163.621094 193.339844 "/>
<path style="fill:none;stroke-width:1.2;stroke-linecap:butt;stroke-linejoin:miter;stroke:rgb(0%,0%,0%);stroke-opacity:1;stroke-miterlimit:10;" d="M 145.097656 154.984375 L 142.761719 167.9375 "/>
<path style="fill:none;stroke-width:1.2;stroke-linecap:butt;stroke-linejoin:miter;stroke:rgb(0%,0%,100%);stroke-opacity:1;stroke-miterlimit:10;" d="M 142.761719 167.9375 L 140.425781 180.890625 "/>
<path style=" stroke:none;fill-rule:nonzero;fill:rgb(100%,100%,100%);fill-opacity:1;" d="M 136.425781 174.390625 L 144.425781 174.390625 L 144.425781 187.390625 L 136.425781 187.390625 Z M 136.425781 174.390625 "/>
<g style="fill:rgb(0%,0%,100%);fill-opacity:1;">
  <use xlink:href="#glyph0-2" x="136.425781" y="184.291992"/>
</g>
<path style="fill:none;stroke-width:1.2;stroke-linecap:butt;stroke-linejoin:miter;stroke:rgb(0%,0%,0%);stroke-opacity:1;stroke-miterlimit:10;" d="M 163.621094 193.339844 L 182.628906 175.125 "/>
<path style="fill:none;stroke-width:1.2;stroke-linecap:butt;stroke-linejoin:miter;stroke:rgb(0%,0%,0%);stroke-opacity:1;stroke-miterlimit:10;" d="M 182.628906 175.125 L 208.882812 177.0625 "/>
<path style="fill:none;stroke-width:1.2;stroke-linecap:butt;stroke-linejoin:miter;stroke:rgb(0%,0%,0%);stroke-opacity:1;stroke-miterlimit:10;" d="M 185.710938 169.140625 L 206.714844 170.691406 "/>
<path style="fill:none;stroke-width:1.2;stroke-linecap:butt;stroke-linejoin:miter;stroke:rgb(0%,0%,0%);stroke-opacity:1;stroke-miterlimit:10;" d="M 171.183594 151.421875 L 182.628906 175.125 "/>
<path style="fill:none;stroke-width:1.2;stroke-linecap:butt;stroke-linejoin:miter;stroke:rgb(0%,0%,0%);stroke-opacity:1;stroke-miterlimit:10;" d="M 208.882812 177.0625 L 223.691406 155.296875 "/>
<path style="fill:none;stroke-width:1.2;stroke-linecap:butt;stroke-linejoin:miter;stroke:rgb(0%,0%,0%);stroke-opacity:1;stroke-miterlimit:10;" d="M 223.691406 155.296875 L 249.945312 157.234375 "/>
<path style="fill:none;stroke-width:1.2;stroke-linecap:butt;stroke-linejoin:miter;stroke:rgb(0%,0%,0%);stroke-opacity:1;stroke-miterlimit:10;" d="M 226.773438 149.3125 L 247.773438 150.863281 "/>
<path style="fill:none;stroke-width:1.2;stroke-linecap:butt;stroke-linejoin:miter;stroke:rgb(0%,0%,0%);stroke-opacity:1;stroke-miterlimit:10;" d="M 212.242188 131.589844 L 223.691406 155.296875 "/>
<path style="fill:none;stroke-width:1.2;stroke-linecap:butt;stroke-linejoin:miter;stroke:rgb(0%,0%,0%);stroke-opacity:1;stroke-miterlimit:10;" d="M 249.945312 157.234375 L 264.75 135.46875 "/>
<path style="fill:none;stroke-width:1.2;stroke-linecap:butt;stroke-linejoin:miter;stroke:rgb(0%,0%,0%);stroke-opacity:1;stroke-miterlimit:10;" d="M 264.75 135.46875 L 253.300781 111.761719 "/>
<path style="fill:none;stroke-width:1.2;stroke-linecap:butt;stroke-linejoin:miter;stroke:rgb(0%,0%,0%);stroke-opacity:1;stroke-miterlimit:10;" d="M 258.027344 135.789062 L 248.867188 116.824219 "/>
<path style="fill:none;stroke-width:1.2;stroke-linecap:butt;stroke-linejoin:miter;stroke:rgb(0%,0%,0%);stroke-opacity:1;stroke-miterlimit:10;" d="M 253.300781 111.761719 L 227.046875 109.824219 "/>
<path style="fill:none;stroke-width:1.2;stroke-linecap:butt;stroke-linejoin:miter;stroke:rgb(0%,0%,0%);stroke-opacity:1;stroke-miterlimit:10;" d="M 227.046875 109.824219 L 212.242188 131.589844 "/>
<path style="fill:none;stroke-width:1.2;stroke-linecap:butt;stroke-linejoin:miter;stroke:rgb(0%,0%,0%);stroke-opacity:1;stroke-miterlimit:10;" d="M 230.6875 115.484375 L 218.84375 132.898438 "/>
<path style="fill:none;stroke-width:1.2;stroke-linecap:butt;stroke-linejoin:miter;stroke:rgb(0%,0%,0%);stroke-opacity:1;stroke-miterlimit:10;" d="M 212.242188 131.589844 L 199.113281 130.621094 "/>
<path style="fill:none;stroke-width:1.2;stroke-linecap:butt;stroke-linejoin:miter;stroke:rgb(0%,0%,100%);stroke-opacity:1;stroke-miterlimit:10;" d="M 199.113281 130.621094 L 185.988281 129.652344 "/>
<path style="fill:none;stroke-width:1.2;stroke-linecap:butt;stroke-linejoin:miter;stroke:rgb(0%,0%,100%);stroke-opacity:1;stroke-miterlimit:10;" d="M 185.988281 129.652344 L 178.585938 140.535156 "/>
<path style="fill:none;stroke-width:1.2;stroke-linecap:butt;stroke-linejoin:miter;stroke:rgb(0%,0%,0%);stroke-opacity:1;stroke-miterlimit:10;" d="M 178.585938 140.535156 L 171.183594 151.421875 "/>
<path style="fill:none;stroke-width:1.2;stroke-linecap:butt;stroke-linejoin:miter;stroke:rgb(0%,0%,100%);stroke-opacity:1;stroke-miterlimit:10;" d="M 189.628906 135.3125 L 183.707031 144.019531 "/>
<path style="fill:none;stroke-width:1.2;stroke-linecap:butt;stroke-linejoin:miter;stroke:rgb(0%,0%,0%);stroke-opacity:1;stroke-miterlimit:10;" d="M 183.707031 144.019531 L 177.785156 152.726562 "/>
<path style=" stroke:none;fill-rule:nonzero;fill:rgb(100%,100%,100%);fill-opacity:1;" d="M 181.988281 123.152344 L 189.988281 123.152344 L 189.988281 136.152344 L 181.988281 136.152344 Z M 181.988281 123.152344 "/>
<g style="fill:rgb(0%,0%,100%);fill-opacity:1;">
  <use xlink:href="#glyph0-2" x="181.988281" y="133.053711"/>
</g>
<path style="fill:none;stroke-width:1.2;stroke-linecap:butt;stroke-linejoin:miter;stroke:rgb(0%,0%,0%);stroke-opacity:1;stroke-miterlimit:10;" d="M 171.183594 151.421875 L 145.097656 154.984375 "/>
<path style="fill:none;stroke-width:1.2;stroke-linecap:butt;stroke-linejoin:miter;stroke:rgb(0%,0%,0%);stroke-opacity:1;stroke-miterlimit:10;" d="M 145.097656 154.984375 L 124.996094 137.984375 "/>
<path style="fill:none;stroke-width:1.2;stroke-linecap:butt;stroke-linejoin:miter;stroke:rgb(0%,0%,0%);stroke-opacity:1;stroke-miterlimit:10;" d="M 139.089844 158.011719 L 123.007812 144.414062 "/>
<path style=" stroke:none;fill-rule:nonzero;fill:rgb(100%,100%,100%);fill-opacity:1;" d="M 92.355469 106.546875 L 109.355469 106.546875 L 109.355469 119.546875 L 92.355469 119.546875 Z M 92.355469 106.546875 "/>
<g style="fill:rgb(100%,0%,0%);fill-opacity:1;">
  <use xlink:href="#glyph0-1" x="92.355469" y="116.448242"/>
  <use xlink:href="#glyph0-3" x="100.755859" y="116.448242"/>
</g>
</g>
</svg>

<svg xmlns="http://www.w3.org/2000/svg" xmlns:xlink="http://www.w3.org/1999/xlink" width="300pt" height="300pt" viewBox="0 0 300 300"><defs><symbol overflow="visible"><path d="M.547 1.938V-7.75h5.5v9.688zm.625-.61h4.266v-8.47H1.171zm0 0"/></symbol><symbol overflow="visible" id="a"><path d="M4.328-7.28c-.78 0-1.406.296-1.875.89-.46.585-.687 1.382-.687 2.39 0 1.012.226 1.813.687 2.406.47.586 1.094.875 1.875.875.79 0 1.414-.288 1.875-.874.457-.593.688-1.394.688-2.406 0-1.008-.23-1.805-.687-2.39-.46-.594-1.086-.89-1.875-.89zm0-.892c1.125 0 2.024.383 2.703 1.14C7.708-6.28 8.048-5.27 8.048-4c0 1.262-.34 2.273-1.016 3.03C6.353-.22 5.454.157 4.33.157S2.3-.22 1.625-.97c-.668-.75-1-1.757-1-3.03 0-1.27.332-2.28 1-3.03.676-.76 1.578-1.142 2.703-1.142zm0 0"/></symbol><symbol overflow="visible" id="b"><path d="M1.078-8.016h1.47l3.546 6.704v-6.704h1.062V0H5.688L2.124-6.703V0H1.078zm0 0"/></symbol><symbol overflow="visible" id="c"><path d="M1.078-8.016h1.094v3.282H6.11v-3.282h1.077V0H6.11v-3.813H2.17V0H1.078zm0 0"/></symbol></defs><g><path fill="#fff" d="M0 0h300v300H0z"/><path d="M80.3 84.293l-13.25 22.75" stroke-width="1.2" stroke="#000" stroke-miterlimit="10" fill="none"/><path d="M80.125 129.89m-1.016-2.824l-.907.52m-.11-3.34l-1.808 1.035m.793-3.858l-2.715 1.555m1.703-4.38l-3.62 2.07m2.605-4.894l-4.527 2.59m3.512-5.41l-5.43 3.106m4.415-5.93l-6.336 3.624m5.32-6.45l-7.238 4.145m6.316-6.716l-8.066 4.614" stroke="#000" stroke-miterlimit="10" fill="none"/><path d="M80.125 129.89l20.098 17M80.125 129.89l10.113-8.42" stroke-width="1.2" stroke="#000" stroke-miterlimit="10" fill="none"/><path d="M90.238 121.47l10.117-8.423" stroke-width="1.2" stroke="#f00" stroke-miterlimit="10" fill="none"/><path d="M55.352 138.797l24.773-8.906M100.223 146.89l-4.672 25.907M105.852 150.582l-3.735 20.727M124.996 137.984l-24.773 8.907M95.55 172.797l-24.77 8.91M95.55 172.797l20.102 17M70.78 181.707l-10.05-8.5" stroke-width="1.2" stroke="#000" stroke-miterlimit="10" fill="none"/><path d="M60.73 173.207l-10.05-8.5M50.68 164.707l2.336-12.953" stroke-width="1.2" stroke="#f00" stroke-miterlimit="10" fill="none"/><path d="M53.016 151.754l2.336-12.957" stroke-width="1.2" stroke="#000" stroke-miterlimit="10" fill="none"/><path d="M46.68 158.207h9v13h-9zm0 0" fill="#fff"/><use xlink:href="#a" x="46.68" y="168.108" fill="#f00"/><path d="M57.352 136.434l-10.05-8.5" stroke-width="1.2" stroke="#000" stroke-miterlimit="10" fill="none"/><path d="M47.3 127.934l-10.05-8.5" stroke-width="1.2" stroke="#f00" stroke-miterlimit="10" fill="none"/><path d="M53.352 141.164l-10.05-8.5" stroke-width="1.2" stroke="#000" stroke-miterlimit="10" fill="none"/><path d="M43.3 132.664l-10.05-8.5" stroke-width="1.2" stroke="#f00" stroke-miterlimit="10" fill="none"/><path d="M26.25 115.3h9v13h-9zm0 0" fill="#fff"/><use xlink:href="#a" x="26.25" y="125.202" fill="#f00"/><path d="M112.605 189.25l-2.335 12.953" stroke-width="1.2" stroke="#000" stroke-miterlimit="10" fill="none"/><path d="M110.27 202.203l-2.336 12.953" stroke-width="1.2" stroke="#f00" stroke-miterlimit="10" fill="none"/><path d="M118.703 190.348l-2.336 12.953" stroke-width="1.2" stroke="#000" stroke-miterlimit="10" fill="none"/><path d="M116.367 203.3l-2.336 12.958" stroke-width="1.2" stroke="#f00" stroke-miterlimit="10" fill="none"/><path d="M115.652 189.797l12.387-4.453" stroke-width="1.2" stroke="#000" stroke-miterlimit="10" fill="none"/><path d="M128.04 185.344l12.386-4.453" stroke-width="1.2" stroke="#00f" stroke-miterlimit="10" fill="none"/><path d="M106.98 209.207h9v13h-9zm0 0" fill="#fff"/><use xlink:href="#a" x="106.98" y="219.108" fill="#f00"/><path d="M140.426 180.89l11.597 6.223" stroke-width="1.2" stroke="#00f" stroke-miterlimit="10" fill="none"/><path d="M152.023 187.113l11.598 6.227M145.098 154.984l-2.336 12.953" stroke-width="1.2" stroke="#000" stroke-miterlimit="10" fill="none"/><path d="M142.762 167.938l-2.336 12.953" stroke-width="1.2" stroke="#00f" stroke-miterlimit="10" fill="none"/><path d="M136.426 174.39h8v13h-8zm0 0" fill="#fff"/><use xlink:href="#b" x="136.426" y="184.292" fill="#00f"/><path d="M163.62 193.34l19.01-18.215M182.63 175.125l26.253 1.938M185.71 169.14l21.005 1.55M171.184 151.422l11.445 23.703M208.883 177.063l14.808-21.766M223.69 155.297l26.255 1.937M226.773 149.313l21 1.55M212.242 131.59l11.45 23.707M249.945 157.234l14.805-21.765M264.75 135.47L253.3 111.76M258.027 135.79l-9.16-18.966M253.3 111.762l-26.253-1.938M227.047 109.824l-14.805 21.766M230.688 115.484l-11.844 17.414M212.242 131.59l-13.13-.97" stroke-width="1.2" stroke="#000" stroke-miterlimit="10" fill="none"/><path d="M199.113 130.62l-13.125-.968M185.988 129.652l-7.402 10.883" stroke-width="1.2" stroke="#00f" stroke-miterlimit="10" fill="none"/><path d="M178.586 140.535l-7.402 10.887" stroke-width="1.2" stroke="#000" stroke-miterlimit="10" fill="none"/><path d="M189.63 135.313l-5.923 8.707" stroke-width="1.2" stroke="#00f" stroke-miterlimit="10" fill="none"/><path d="M183.707 144.02l-5.922 8.707" stroke-width="1.2" stroke="#000" stroke-miterlimit="10" fill="none"/><path d="M181.988 123.152h8v13h-8zm0 0" fill="#fff"/><use xlink:href="#b" x="181.988" y="133.054" fill="#00f"/><path d="M171.184 151.422l-26.086 3.562M145.098 154.984l-20.102-17M139.09 158.012l-16.082-13.598" stroke-width="1.2" stroke="#000" stroke-miterlimit="10" fill="none"/><path d="M92.355 106.547h17v13h-17zm0 0" fill="#fff"/><g fill="#f00"><use xlink:href="#a" x="92.355" y="116.448"/><use xlink:href="#c" x="100.756" y="116.448"/></g></g></svg>
